img/icon/lesson-arrow.svg

<svg width="206" height="235" viewBox="0 0 206 235" fill="none" xmlns="http://www.w3.org/2000/svg">
<path d="M201.854 0.646447C201.658 0.451184 201.342 0.451184 201.146 0.646447L197.964 3.82843C197.769 4.02369 197.769 4.34027 197.964 4.53553C198.16 4.7308 198.476 4.7308 198.672 4.53553L201.5 1.70711L204.328 4.53553C204.524 4.7308 204.84 4.7308 205.036 4.53553C205.231 4.34027 205.231 4.02369 205.036 3.82843L201.854 0.646447ZM1.00427 234.5C79.0658 233.833 129.376 215.868 160.139 177.764C190.879 139.688 202 81.6174 202 1H201C201 81.5826 189.871 139.345 159.361 177.136C128.874 214.898 78.9342 232.834 0.995727 233.5L1.00427 234.5Z" fill="white"/>
</svg>

<svg width="206" height="235" fill="none" xmlns="http://www.w3.org/2000/svg"><path d="M201.854.646a.501.501 0 0 0-.708 0l-3.182 3.182a.5.5 0 0 0 .708.708l2.828-2.829 2.828 2.829a.501.501 0 0 0 .708-.708L201.854.646zM1.004 234.5c78.062-.667 128.372-18.632 159.135-56.736C190.879 139.688 202 81.617 202 1h-1c0 80.583-11.129 138.345-41.639 176.136C128.874 214.898 78.934 232.834.996 233.5l.008 1z" fill="#fff"/></svg>
